X:122
T:Sicilian Dance,The. JBs.122
S:Jas.Blackshaw MS, 1837, N.Shropshire
A:North Shropshire
Z:T. Weatherall 2006
M:6/8
L:1/8
Q:3/8=120
R:Jig
K:G
GAG BAG|d2dd2c|Bdg d2c|B2AG2D|!
G>AG B>AG|d2dd2g|fgf edc|d3d3:|!
|:a2dcâ€™2b|agf gfg|a2dcâ€™2b|agf g2z|!
ecâ€™câ€™ dbb|caa g2B|cBA d2F|G3G3||!
B3AGA|G2GGBd|d3cBc|B2BB2g|!
g2ff2e|e2dd2c|Bcd dcB|B3A3||!
g3gec|ded d3|câ€™3câ€™af|gag g2d|!
g2fe2d|e2dc2B|ABAd2F|G3G3|]

